X:5970
T:Gan Ainm
R:reel
S:
H:
N:
D:Milltown 1999 
Z:Adrian Scahill
M:4/4
L:1/8
K:G
G2EG A2GA|cded cAAF|G2EG A2GA|cAGE EDEF|\
G2EG A2GA|cded cAAF|G3G A2GA|cAGE EDDd||\
eggf gedg|eggf gedg|eggf gedB|cded cAGc|\
eggf gedg|eggf gedg|eaag a3f|gedB BAEF||\
